src/pages/elements/images/i-m-wrong-mobile.svg

<svg xmlns="http://www.w3.org/2000/svg" viewBox="0 0 288 288"><g fill="none" fill-rule="evenodd"><path fill="#FFF" d="M0 0h288v288H0z"/><path d="M112.48 171H92.32v-5.04h7.056v-40.176H92.32v-5.04h20.16v5.04h-7.056v40.176h7.056V171zm33.624 0h-5.76v-37.152h5.76v6.048h.288c1.656-3.816 4.248-6.912 10.008-6.912 4.896 0 9.36 2.232 11.376 7.56h.144c1.368-4.032 4.968-7.56 11.304-7.56 7.56 0 12.096 5.184 12.096 14.184V171h-5.76v-22.824c0-6.552-2.52-10.008-8.136-10.008-4.536 0-8.712 2.304-8.712 7.056V171h-5.76v-22.824c0-6.624-2.52-10.008-7.992-10.008-4.536 0-8.856 2.304-8.856 7.056V171z" fill="#3D3D3D"/><path fill="#D12765" d="M128.104 137.88h-5.184v-20.16h5.184z"/></g></svg>

<?xml version="1.0" encoding="UTF-8"?>
<svg width="288px" height="288px" viewBox="0 0 288 288" version="1.1" xmlns="http://www.w3.org/2000/svg" xmlns:xlink="http://www.w3.org/1999/xlink">
    <!-- Generator: Sketch 51.2 (57519) - http://www.bohemiancoding.com/sketch -->
    <title>Group 22</title>
    <desc>Created with Sketch.</desc>
    <defs></defs>
    <g id="Page-1" stroke="none" stroke-width="1" fill="none" fill-rule="evenodd">
        <g id="Type-Basics-Copy" transform="translate(-673.000000, -4105.000000)">
            <g id="Group-22" transform="translate(673.000000, 4105.000000)">
                <rect id="Rectangle-16-Copy-169" fill="#FFFFFF" x="0" y="0" width="288" height="288"></rect>
                <path d="M112.48,171 L92.32,171 L92.32,165.96 L99.376,165.96 L99.376,125.784 L92.32,125.784 L92.32,120.744 L112.48,120.744 L112.48,125.784 L105.424,125.784 L105.424,165.96 L112.48,165.96 L112.48,171 Z M146.104,171 L140.344,171 L140.344,133.848 L146.104,133.848 L146.104,139.896 L146.392,139.896 C148.048,136.08 150.64,132.984 156.4,132.984 C161.296,132.984 165.76,135.216 167.776,140.544 L167.92,140.544 C169.288,136.512 172.888,132.984 179.224,132.984 C186.784,132.984 191.32,138.168 191.32,147.168 L191.32,171 L185.56,171 L185.56,148.176 C185.56,141.624 183.04,138.168 177.424,138.168 C172.888,138.168 168.712,140.472 168.712,145.224 L168.712,171 L162.952,171 L162.952,148.176 C162.952,141.552 160.432,138.168 154.96,138.168 C150.424,138.168 146.104,140.472 146.104,145.224 L146.104,171 Z" id="I'm" fill="#3D3D3D"></path>
                <polygon id="Path" fill="#D12765" points="128.104 137.88 122.92 137.88 122.92 117.72 128.104 117.72"></polygon>
            </g>
        </g>
    </g>
</svg>
